X:1
T:B360- Over the Hills and Far Away
Q:1/4=120
L:1/4
M:C|
F:http://trillian.mit.edu/~jc/music/abc/mirror/BruceOlson/BM3.ABC 2007-07-09 17:20:05 UT
K:D dorian
G|ce/d/ c/d/ e/d/|cA2G|ce/d/ c/d/ e/c/|fd2G|\
ce/d/ c/d/e/d/|cAf3/2A/|AG/F/Ge|fd2||e/d/|\
g3/2f/ed|cA2e/f/|g3/2f/ed/c/|fd2e/f/|\
g3/2f/ed|cAf3/2A/|AG/F/Ge|fd2|]
-----------------------------------------------------------------------------
Manadir18-07-2007, 08:09 PMThis outta help. I couldnt be bothered to transcribe yours but heres the version I made :)
